X:1
T:The Bible of Our Fathers
T:Clarence B. Strouse, 1911
T:The Bible of Our Fathers
T:Public Domain
T:Public Domain
T:Public Domain
C:Clarence B. Strouse, 1911
Z:Public Domain
%%score ( 1 2 ) ( 3 4 )
L:1/8
M:4/4
K:Db
V:1 treble 
V:2 treble 
V:3 bass 
V:4 bass 
V:1
 D | [DF]>[DF] [DF]>[EG] [FA]>[FA] [FA]>[FA] | [GB]>[Bd] [Ac]>[GB] [FA]3 [DF] | %3
w: 1.~The|ble of our fa- thers Is the bless-|èd Word of God, Its pag-|
w: 2.~The|ble of our fa- thers: Its great prom-|is- es are true, They ne-|
w: 3.~The|ble of our fa- thers, Though at- tacked|with- out, with- in, Is still|
w: 4.~The|ble of our fa- thers, On- ly those|who preach it whole Are reach-|
w: 5.~The|ble of our fa- thers, In the judg-|ment day will be The on-|
 [EG]>[EG] [EG]>[CA] [DF]>[EG] [FA]>[FB] | [Ec]>[Ec] [DB]>[DB] [CA]3 ||"^Refrain" [GA] | %6
w: es are in- spir- èd— By its light|our fa- thers trod. *||
w: ver fail be- liev- ers; Trust, its Gos-|pel will save you! *||
w: re- joic- ing mil- lions It is sav-|ing from their sin. The|Bi-|
w: ing dy- ing sin- ners, Bring- ing peace|to the lost soul. *||
w: ly book re- main- ing, Save the book|of life we’ll see. *||
 [Fd]>[Fd] [Fd]>[Fd] [Fd]>[Fc] [FB]>[FA] | [Gc]2 [Gc]2 [Gc]3 [GA] | %8
w: ||
w: ||
w: ble of our fa- thers is the book|for me, The Bi-|
w: ||
w: ||
 [Gc]>[Gc] [Gc]>[Gc] [Gc]>[GB] [FA]>[EG] | [GB]2 [GB]2 [FA]3 [FA] | %10
w: ||
w: ||
w: ble of our fa- thers, let it ev-|er be; The Bi-|
w: ||
w: ||
 [Fd]>[Fd] [Fd]>[Fd] [Fd] [Fd]2 [Ac] | [GB]>[GB] [GB]>[GB] [=Ge]3 [Gd] | %12
w: ||
w: ||
w: ble of our fa- thers is good|e- nough for me, The Bi-|
w: ||
w: ||
 [Gc]>[Gc] [Gc]>[Gc] [Gc] [Gc]2 [GB] | [GA]>[GA] [GB]>[Gc] [Fd]3 |] %14
w: ||
w: ||
w: ble of our fa- thers, our hope|e- tern- al- ly. *|
w: ||
w: ||
V:2
 D | x8 | x8 | x8 | x7 || x | x8 | x8 | x8 | x8 | x8 | x8 | x8 | x7 |] %14
w: Bi-||||||||||||||
w: Bi-||||||||||||||
w: Bi-||||||||||||||
w: Bi-||||||||||||||
w: Bi-||||||||||||||
V:3
 [D,F,] | [D,A,]>[D,A,] [D,A,]>[D,A,] [D,D]>[D,D] [D,D]>[D,D] | %2
 [G,D]>[G,D] [G,D]>[G,D] [D,D]3 [D,A,] | %3
 [A,,A,]>[A,,A,] [A,,A,]>[A,,A,] [D,A,]>[D,A,] [D,D]>[D,D] | %4
 [E,B,]>[E,A,] [E,=G,]>[E,G,] [A,,A,]3 || A, | %6
 [D,A,]>[D,A,] [D,A,]>[D,A,] [D,A,]>[D,A,] [D,D]>[D,D] | [A,E]2 [A,E]2 [A,E]3 [A,C] | %8
 [A,,E]>[A,,E] [A,,E]>[A,,E] [A,,E]>[A,,C] [A,,C]>[A,,C] | [D,D]2 [D,D]2 [D,D]3 [D,D] | %10
 [D,A,]>[D,A,] [D,A,]>[D,A,] [D,A,] [D,A,]2 [F,D] | [G,D]>[G,D] [G,D]>[G,D] [E,D]3 [E,E] | %12
 [A,E]>[A,E] [A,E]>[A,E] [A,E] [A,E]2 [A,D] | [A,C]>[A,C] [A,C]>A, [D,A,]3 |] %14
V:4
 x | x8 | x8 | x8 | x7 || A, | x8 | x8 | x8 | x8 | x8 | x8 | x8 | x7/2 A,/ x3 |] %14

